X:1
T:Mi lasci, ingrata
T:Enrico Radesca di Foggia
T:Source : Secondo Libro delle canzonette, madrigali et arie alla Romana a due voci--- Milano---Herede di S.Tini et F.Lomazzo---1606 Editor : André Vierendeels (16/11/16).
T:Notes : Origonal clefs : C1, F4 Editorial accidentals above the staff "Paer cantar e suonar con lilchitarone o spinetta
T:Mi lasci, ingrata
T:©
T:©
T:©
T:©
C:Enrico Radesca di Foggia
Z:©
%%score 1 2
L:1/8
Q:1/4=120
M:4/4
K:F
V:1 treble nm="Soprano" snm="S"
V:2 bass nm="MusicXML Part"
V:1
 z2 B2 d4 | B4 z2 d2 | B2 A2 G2 A2 | A4 A2 A2 | =B3 B ^c3 c | d2 A2 =B3 B | c3 c A4 | z2 d2 _e4- | %8
w: Mi la-|sci, mi|la- sc'in- gra- ta|so- lo, pen-|san- do di gio-|ir, pen- san- do|di gio- ir|con al-|
 e2 d2 c4 | B4 z2 d2 | f2 _e2 d2 d2 | c4 A4 | d2 G2 A4- | A4 A2 A2 | A2 B2 c4- | c2 F2 G2 A2 | %16
w: * tri'à vo-|lo, et|all' ar- dor pri-|mie- ro,|mi ri- chia-|* mi, mi|ri- chiam' hor|_ che van fu'l|
 B6 G2 | A8 | G8 :: z2 AA A2 EE | FDdd d2 AA | BGcc c2 GG | A2 F2 z FFE | D4 z ddc | B6 c2 | c8 | %26
w: tuo pen-|sie-|ro:|Paz- za- rel- la che|se- i, paz- za- rel- la che|se- i, tu l'in- gan- no ten-|ta- sti e nel- la|fè, e nel- la|fè man-|ca-|
 B4 d4 | c2 B3 B c2 | A4 A4 | B2 c2 d4 | c2 cd _e2 Bc | d2 AB c2 GA | B2 FG A2 EF | G4 z2 c2- | %34
w: sti, Dun-|que non ti do-|ler per-|che ben spes-|so, ch'in- gan- nar pen- s'al-|trui, ch'in- gan- nar pen- s'al-|trui, ch'in- gan- nar pen- s'al-|trui gab-|
 cc B2 A4 | G4 d4 | c4 B4 | A4 G4 | F4 _E4 | D2 d2 c2 B2 | A2 G2 A4 | G2 F3 F G2 | G4 F2 d2- | %43
w: * ba _ se|stes- so,|ch'in- gan-|nar pen-|s'al- trui|gab- ba, gab- ba|se stes- *|so, gab- ba se|stes- so, gab-|
 d2 cB A4 | G8 |] %45
w: * ba se stes-|so.|
V:2
"^BC""^Bass" z2 G,2 B,4 | G,4 z2 G,2 | G,2 F,2 _E,2 C,2 | D,4 D,4 | z2 G,2 A,3 A, | %5
w: Mi la-|sci, mi|la- sc'in- gra- ta|so- lo,|pen san- do|
"^B" ^F,3 F, G,2 G,2 | E,3 E, ^F,3 F, | G,2 G,2 _E,2 E,2 | F,8 | B,,4 z2 B,,2 | B,,2 C,2 D,2 E,2 | %11
w: di gio- ir, pen-|san- do di gio-|ir con al- tri'à|vo-|lo, et|all' ar- dor pri-|
"^B" F,4 F,4 | G,2 _E,2 D,4- | D,4 D,2 D,2 | D,2 G,2 F,4- | F,2 D,2 E,2 F,2 | G,4 _E,4 | D,8 | %18
w: mie- ro,|mi ri- chia-|* mi, mi|ri- chiam' hor|_ che van fu'l|tuo pen-|sie-|
 G,,8 :: z2 D,D, A,,2 A,,A,, | D,D,G,G, D,2 D,D, | G,G,F,F, C,2 C,C, | F,4 D,4 | z B,,B,,A,, G,,4 | %24
w: ro:|Paz- za- rel- la che|se- i, paz- za- rel- la che|se- i tu l'in- gan- no ten-|ta- sti|e nel- la fè,|
 z G,G,F, _E,2 E,2 | F,8 | B,,4 B,,4 | F,2 G,3 G, C,2 | D,4 D,4 | G,2 F,2 B,,4 | F,4 _E,4 | %31
w: e nel- la fè man-|ca-|sti, Dun-|que non ti do-|ler per-|che ben spes-|so, ch'in-|
 D,4 C,4 | B,,4 A,,4 | G,,2 G,2 _E,2 C,2 | D,8 | G,,2 G,A, B,2 F,G, | A,2 E,F, G,2 D,E, | %37
w: gan- nar|pen- s'al-|trui, gab- ba se|stes-|so, ch'in- gan- nar pen- s'al-|trui, ch'in- gan- nar pen- s'al-|
 F,2 C,D, _E,2 B,,C, | D,2 A,,B,, C,2 G,,A,, | B,,4 C,4 | D,2 _E,2 D,4 | G,,2 B,,3 B,, B,,2 | %42
w: trui, ch'in- gan- nar pen- s'al-|trui, ch'in- gan- nar pen- s'al-|trui gab-|ba se- stes-|so, gab- ba se|
 C,4 F,,2 B,,2- | B,,2 C,C, D,4 | G,,8 |] %45
w: stes- so, ga-|* ba se stes-|so.|

